!!!!SEGMENT: Snf0123-Gaude_Dei_genitrix--Munich_12.krn
!!!id: Snf0123
!!!AGN: Motet
!!!voices: 4
!!!COM: Ludwig Senfl
!!!SMS: Munich 12
!!!OTL: Gaude, Dei genitrix (Munich 12)
**kern	**text	**kern	**text	**kern	**text	**kern	**text
*part4	*part4	*part3	*part3	*part2	*part2	*part1	*part1
*staff4	*staff4	*staff3	*staff3	*staff2	*staff2	*staff1	*staff1
*I"Bassus	*	*I"Tenor	*	*I"Altus	*	*I"Superius	*
*I'B	*	*I'T	*	*I'A	*	*I'S	*
*clefF4	*	*clefGv2	*	*clefGv2	*	*clefG2	*
*k[b-]	*	*k[b-]	*	*k[b-]	*	*k[b-]	*
*F:	*	*F:	*	*F:	*	*F:	*
*M2/1	*	*M2/1	*	*M2/1	*	*M2/1	*
*met(C|)	*	*met(C|)	*	*met(C|)	*	*met(C|)	*
!!section: Prima pars: Gaude, Dei genitrix
!!!OMD: Prima pars: Gaude, Dei genitrix
2.AA	Gau-	0A	Gau-	0r	.	0r	.
4BB-y	.	.	.	.	.	.	.
2C	.	.	.	.	.	.	.
2D	.	.	.	.	.	.	.
=1	=1	=1	=1	=1	=1	=1	=1
2E	.	0G	.	0r	.	0r	.
1F	.	.	.	.	.	.	.
2E	-de,	.	.	.	.	.	.
=2	=2	=2	=2	=2	=2	=2	=2
1F	De-	0F	-de,	0r	.	0r	.
1A	-i	.	.	.	.	.	.
=3	=3	=3	=3	=3	=3	=3	=3
2.c	Ge-	1F	De-	2.A	Gau-	0a	Gau-
4B-y	.	.	.	4B-y	.	.	.
4A	.	1A	-i	2c	.	.	.
4G	.	.	.	.	.	.	.
2F	.	.	.	2d	.	.	.
=4	=4	=4	=4	=4	=4	=4	=4
2E	.	0c	Ge-	2e	.	0g	.
2D	-ni-	.	.	1f	.	.	.
1C	-trix,	.	.	.	.	.	.
.	.	.	.	2e	-de,	.	.
=5	=5	=5	=5	=5	=5	=5	=5
0r	.	0d	.	1f	De-	0f	-de,
.	.	.	.	1a	-i	.	.
=6	=6	=6	=6	=6	=6	=6	=6
1F	De-	0c	-ni-	2.cc	Ge-	1f	De-
.	.	.	.	4b-y	.	.	.
2F	-i	.	.	4a	.	1a	-i
.	.	.	.	4g	.	.	.
[2F	Ge-	.	.	[2a	.	.	.
=7	=7	=7	=7	=7	=7	=7	=7
2F]	.	0c	-trix,	2a]	.	0cc	Ge-
4E	.	.	.	4g	.	.	.
4D	.	.	.	4f	.	.	.
2C	.	.	.	2e	.	.	.
2C	-ni-	.	.	2e	-ni-	.	.
=8	=8	=8	=8	=8	=8	=8	=8
1BB-y	-trix,	0r	.	2d	-trix,	0dd	.
.	.	.	.	1f	De-	.	.
1B-y	Vir-	.	.	.	.	.	.
.	.	.	.	[2g	.	.	.
=9	=9	=9	=9	=9	=9	=9	=9
2.c	.	0r	.	4g]	.	0cc	-ni-
.	.	.	.	4f	.	.	.
.	.	.	.	4e	.	.	.
4B-y	.	.	.	4d	.	.	.
4A	.	.	.	1e	-i	.	.
4G	.	.	.	.	.	.	.
[2A	.	.	.	.	.	.	.
=10	=10	=10	=10	=10	=10	=10	=10
2A]	.	0c	Vir-	1a	Ge-	0cc	-trix,
4G	.	.	.	.	.	.	.
4F	.	.	.	.	.	.	.
1E	.	.	.	1g	-ni-	.	.
=11	=11	=11	=11	=11	=11	=11	=11
2D	.	0d	.	2f	-trix,	0r	.
2.G	.	.	.	2.b-y	Vir-	.	.
4F	.	.	.	4a	.	.	.
2G	.	.	.	4g	.	.	.
.	.	.	.	4f	.	.	.
=12	=12	=12	=12	=12	=12	=12	=12
1.A	.	0c	-go	2e	.	0cc	Vir-
.	.	.	.	2f	.	.	.
.	.	.	.	2e	.	.	.
2F	.	.	.	[2a	.	.	.
=13	=13	=13	=13	=13	=13	=13	=13
0B-y	.	0r	.	2a]	.	0dd	.
.	.	.	.	4g	.	.	.
.	.	.	.	4f	.	.	.
.	.	.	.	1g	.	.	.
=14	=14	=14	=14	=14	=14	=14	=14
1A	-go	1r	.	1a	-go	0cc	-go
2r	.	1A	im-	2r	.	.	.
2F	im-	.	.	2a	im-	.	.
=15	=15	=15	=15	=15	=15	=15	=15
2G	-ma-	1G	-ma-	2d	-ma-	0r	.
2E	-cu-	.	.	2g	-cu-	.	.
1F	-la-	1A	.	2.c	-la-	.	.
.	.	.	.	4d	.	.	.
=16	=16	=16	=16	=16	=16	=16	=16
2C	.	0G	-cu-	2e	.	0r	.
2BB-y	.	.	.	1f	.	.	.
1C	-ta,	.	.	.	.	.	.
.	.	.	.	2e	.	.	.
=17	=17	=17	=17	=17	=17	=17	=17
1r	.	1F	-la-	1f	-ta,	1r	.
2r	.	1F	-ta;	2r	.	1a	im-
2F	im-	.	.	2f	im-	.	.
=18	=18	=18	=18	=18	=18	=18	=18
2G	-ma-	0r	.	2d	-ma-	1g	-ma-
2E	-cu-	.	.	2e	-cu-	.	.
1F	-la-	.	.	4A	-la-	1a	.
.	.	.	.	4B-y	.	.	.
.	.	.	.	4c	.	.	.
.	.	.	.	4d	.	.	.
=19	=19	=19	=19	=19	=19	=19	=19
2C	.	0r	.	2e	.	0g	-cu-
2BB-y	.	.	.	1f	.	.	.
1C	-ta;	.	.	.	.	.	.
.	.	.	.	2e	.	.	.
=20	=20	=20	=20	=20	=20	=20	=20
2r	.	1r	.	2f	.	1f	-la-
2.F	gau-	.	.	2c	-ta;	.	.
.	.	[1A	gau-	2r	.	1f	-ta;
4G	.	.	.	.	.	.	.
4A	.	.	.	[2c	gau-	.	.
4B-y	.	.	.	.	.	.	.
=21	=21	=21	=21	=21	=21	=21	=21
1c	.	1A]	.	4c]	.	0r	.
.	.	.	.	4d	.	.	.
.	.	.	.	4e	.	.	.
.	.	.	.	4f	.	.	.
1C	-de,	1G	-de,	1g	.	.	.
=22	=22	=22	=22	=22	=22	=22	=22
2r	.	1F	quae	1a	-de,	1r	.
2.c	quae	.	.	.	.	.	.
.	.	1A	ab	2r	.	[1a	gau-
4B-y	.	.	.	.	.	.	.
4A	.	.	.	[2A	quae	.	.
4G	.	.	.	.	.	.	.
=23	=23	=23	=23	=23	=23	=23	=23
1F	.	0c	an-	4A]	.	1a]	.
.	.	.	.	4B-y	.	.	.
.	.	.	.	4c	.	.	.
.	.	.	.	4d	.	.	.
1E	ab	.	.	4e	.	1g	-de,
.	.	.	.	4f	.	.	.
.	.	.	.	4g	.	.	.
.	.	.	.	4G	.	.	.
=24	=24	=24	=24	=24	=24	=24	=24
2r	.	0d	.	4B-y	.	1f	quae
.	.	.	.	4c	.	.	.
2.D	an-	.	.	4d	.	.	.
.	.	.	.	4e	.	.	.
.	.	.	.	2f	.	1a	ab
4E	.	.	.	.	.	.	.
4F	.	.	.	2f	ab	.	.
4G	.	.	.	.	.	.	.
=25	=25	=25	=25	=25	=25	=25	=25
2A	.	1c	-ge-	2e	an-	0cc	an-
4F	-ge-	.	.	2.a	.	.	.
4G	.	.	.	.	.	.	.
4A	.	1c	-lo	.	.	.	.
4B-y	.	.	.	4g	.	.	.
4c	.	.	.	4e	.	.	.
4A	.	.	.	4a	.	.	.
=26	=26	=26	=26	=26	=26	=26	=26
2B-y	.	0r	.	2f	.	0dd	.
2.G	-lo	.	.	2.g	.	.	.
4A	.	.	.	4f	.	.	.
4B-y	.	.	.	4d	.	.	.
4G	.	.	.	4g	.	.	.
=27	=27	=27	=27	=27	=27	=27	=27
1A	.	1r	.	2e	.	1cc	-ge-
.	.	.	.	2f	-ge-	.	.
2r	.	1c	gau-	1e	-lo	1cc	-lo
2A	gau-	.	.	.	.	.	.
=28	=28	=28	=28	=28	=28	=28	=28
2D	-di-	1d	-di-	1r	.	1r	.
2G	.	.	.	.	.	.	.
1F	-um	1f	-um	2r	.	1cc	gau-
.	.	.	.	2a	gau-	.	.
=29	=29	=29	=29	=29	=29	=29	=29
2r	.	0r	.	2d	-di-	1dd	-di-
1B-y	su-	.	.	2g	.	.	.
.	.	.	.	1f	-um	1ff	-um
2A	.	.	.	.	.	.	.
=30	=30	=30	=30	=30	=30	=30	=30
2G	-sce-	2r	.	2g	.	0r	.
2F	.	1f	su-	2a	.	.	.
1G	-pi-	.	.	2b-y	.	.	.
.	.	2e	.	2g	.	.	.
=31	=31	=31	=31	=31	=31	=31	=31
1F	-sti,	2d	.	2a	.	1r	.
.	.	2c	-sce-	1cc	su-	.	.
1r	.	1d	-pi-	.	.	2r	.
.	.	.	.	2b-y	.	[2ff	su-
=32	=32	=32	=32	=32	=32	=32	=32
0r	.	1c	-sti,	2a	-sce-	2ff]	.
.	.	.	.	2g	.	2ee	-sce-
.	.	1f	su-	1a	-pi-	4dd	.
.	.	.	.	.	.	4cc	.
.	.	.	.	.	.	[2ff	-pi-
=33	=33	=33	=33	=33	=33	=33	=33
0r	.	1c	-sce-	2.g	.	2ff]	.
.	.	.	.	.	.	2ee	.
.	.	.	.	4a	.	.	.
.	.	2g	-pi-	2b-y	.	2dd	.
.	.	2a	.	[2cc	.	2cc	.
=34	=34	=34	=34	=34	=34	=34	=34
2r	.	1g	.	2cc]	.	1dd	.
1B-y	su-	.	.	2bnXi	.	.	.
.	.	1c	-sti,	1cc	-sti,	1cc	.
2A	.	.	.	.	.	.	.
=35	=35	=35	=35	=35	=35	=35	=35
2G	-sce-	2r	.	2r	.	2b-y	.
2F	.	1f	su-	1c	su-	1a	.
1G	-pi-	.	.	.	.	.	.
.	.	2e	.	2B-y	-sce-	2g	.
=36	=36	=36	=36	=36	=36	=36	=36
2F	.	2d	-sce-	1f	-pi-	2a	.
2A	.	2c	.	.	.	1cc	.
1G	.	1d	-pi-	1g	-sti;	.	.
.	.	.	.	.	.	2bnXi	.
=37	=37	=37	=37	=37	=37	=37	=37
2C	-sti;	1c	-sti;	2.g	gau-	0cc	-sti;
2.c	gau-	.	.	.	.	.	.
.	.	.	.	4f	.	.	.
.	.	1r	.	4e	.	.	.
4B-y	.	.	.	4d	.	.	.
4A	.	.	.	4c	.	.	.
4G	.	.	.	4B-y	.	.	.
=38	=38	=38	=38	=38	=38	=38	=38
4F	.	0f	gau-	4A	.	0r	.
4E	.	.	.	4G	.	.	.
4D	.	.	.	1c	.	.	.
4C	.	.	.	.	.	.	.
1D	.	.	.	.	.	.	.
.	.	.	.	2B-y	.	.	.
=39	=39	=39	=39	=39	=39	=39	=39
2C	.	0e	.	4c	.	0r	.
.	.	.	.	4d	.	.	.
1c	.	.	.	4e	.	.	.
.	.	.	.	4f	.	.	.
.	.	.	.	2g	.	.	.
2A	.	.	.	2a	.	.	.
=40	=40	=40	=40	=40	=40	=40	=40
0B-y	.	0d	.	1f	.	0ff	gau-
.	.	.	.	1b-y	.	.	.
=41	=41	=41	=41	=41	=41	=41	=41
0c	.	0e	.	1.g	.	0ee	.
.	.	.	.	2a	.	.	.
=42	=42	=42	=42	=42	=42	=42	=42
1B-y	.	0f	-de,	1b-y	.	0dd	.
1d	.	.	.	2B-y	.	.	.
.	.	.	.	2b-y	.	.	.
=43	=43	=43	=43	=43	=43	=43	=43
0c	-de,	0r	.	2a	.	0ee	.
.	.	.	.	4g	.	.	.
.	.	.	.	4f	.	.	.
.	.	.	.	1g	.	.	.
=44	=44	=44	=44	=44	=44	=44	=44
1F	quae	0r	.	2f	.	1ff	-de,
.	.	.	.	2a	.	.	.
1E	ge-	.	.	1g	-de,	1r	.
=45	=45	=45	=45	=45	=45	=45	=45
1F	-nu-	1f	quae	2r	.	0r	.
.	.	.	.	1c	quae	.	.
1G	-i-	1e	ge-	.	.	.	.
.	.	.	.	2B-y	ge-	.	.
=46	=46	=46	=46	=46	=46	=46	=46
1F	-sti	1f	-nu-	2c	-nu-	1ff	quae
.	.	.	.	2d	-i-	.	.
1r	.	1g	-i-	1c	-sti	1ee	ge-
=47	=47	=47	=47	=47	=47	=47	=47
1r	.	1f	-sti	2r	.	1ff	-nu-
.	.	.	.	2d	ae-	.	.
1E	ae-	1r	.	4e	-ter-	1gg	-i-
.	.	.	.	4d	.	.	.
.	.	.	.	4c	.	.	.
.	.	.	.	4B-y	.	.	.
=48	=48	=48	=48	=48	=48	=48	=48
1F	-ter-	0r	.	2A	.	1ff	-sti
.	.	.	.	1c	.	.	.
1D	-ni,	.	.	.	.	1r	.
.	.	.	.	2BnXi	.	.	.
=49	=49	=49	=49	=49	=49	=49	=49
1C	.	1e	ae-	2c	-ni,	0r	.
.	.	.	.	2g	ae-	.	.
1r	.	1f	-ter-	2a	-ter-	.	.
.	.	.	.	[2cc	.	.	.
=50	=50	=50	=50	=50	=50	=50	=50
2r	.	1d	-ni,	2cc]	.	1r	.
2G	ae-	.	.	2bnXi	.	.	.
2A	-ter-	1c	.	2cc	-ni,	1ee	ae-
2c	.	.	.	2g	ae-	.	.
=51	=51	=51	=51	=51	=51	=51	=51
1F	-ni,	2r	.	2a	-ter-	1ff	-ter-
.	.	2f	ae-	1cc	.	.	.
1r	.	1g	-ter-	.	.	1dd	-ni,
.	.	.	.	2bnXi	.	.	.
=52	=52	=52	=52	=52	=52	=52	=52
1A	ae-	1e	-ni,	2cc	-ni,	1cc	.
.	.	.	.	2c	ae-	.	.
1B-y	-ter-	1d	.	2d	-ter-	2r	.
.	.	.	.	[2f	.	[2dd	ae-
=53	=53	=53	=53	=53	=53	=53	=53
1G	-ni	2r	.	2f]	.	2dd]	.
.	.	2e	ae-	2e	-ni,	4cc	.
.	.	.	.	.	.	4b-y	.
1F	.	1f	-ter-	2r	.	2a	.
.	.	.	.	2a	ae-	2cc	-ter-
=54	=54	=54	=54	=54	=54	=54	=54
1r	.	1d	-ni,	1b-y	-ter-	2dd	.
.	.	.	.	.	.	1ff	.
1c	lu-	1c	.	1g	-ni	.	.
.	.	.	.	.	.	2ee	.
=55	=55	=55	=55	=55	=55	=55	=55
1d	.	1r	.	1f	.	1ff	.
1c	-mi-	[1e	ae-	1g	lu-	1ee	-ni
=56	=56	=56	=56	=56	=56	=56	=56
2.A	-nis	1e]	.	0a	.	2r	.
.	.	.	.	.	.	1cc	lu-
4G	.	.	.	.	.	.	.
1F	.	1f	-ter-	.	.	.	.
.	.	.	.	.	.	4b-y	.
.	.	.	.	.	.	4a	.
=57	=57	=57	=57	=57	=57	=57	=57
0G	cla-	2d	-ni	0g	-mi-	2b-y	.
.	.	2e	.	.	.	1cc	.
.	.	1d	.	.	.	.	.
.	.	.	.	.	.	2b-y	.
=58	=58	=58	=58	=58	=58	=58	=58
0A	.	3%2c	lu-	2.e	-nis	2cc	.
.	.	.	.	.	.	2cc	-mi-
.	.	3%2e	-mi-	.	.	.	.
.	.	.	.	4d	.	.	.
.	.	.	.	1c	.	1cc	-nis
.	.	3%2f	-nis	.	.	.	.
=59	=59	=59	=59	=59	=59	=59	=59
0G	-ri-	3%4g	cla-	1d	cla-	1b-y	cla-
.	.	.	.	1e	.	1g	-ri-
.	.	3%2e	-ri-	.	.	.	.
=60	=60	=60	=60	=60	=60	=60	=60
0F	-ta-	0f	-ta-	1d	-ri-	0a	-ta-
.	.	.	.	[1c	-ta-	.	.
=61	=61	=61	=61	=61	=61	=61	=61
[0F	-tem:	[0f	-tem:	1c]	.	0a	-tem:
.	.	.	.	[1c	-tem:	.	.
=62	=62	=62	=62	=62	=62	=62	=62
0F]	.	0f]	.	1c]	.	1r	.
.	.	.	.	1r	.	1a	gau-
=63	=63	=63	=63	=63	=63	=63	=63
0r	.	0r	.	1e	gau-	1g	-de,
.	.	.	.	1d	-de,	1f	Ma-
=64	=64	=64	=64	=64	=64	=64	=64
0r	.	0r	.	1c	Ma-	1a	-ter,
.	.	.	.	1e	-ter,	1cc	gau-
=65	=65	=65	=65	=65	=65	=65	=65
0r	.	0r	.	1g	gau-	1dd	.
.	.	.	.	1a	.	1cc	-de,
=66	=66	=66	=66	=66	=66	=66	=66
0r	.	0e	gau-	1g	-de,	2r	.
.	.	.	.	.	.	2cc	gau-
.	.	.	.	1r	.	2.g	.
.	.	.	.	.	.	4a	.
=67	=67	=67	=67	=67	=67	=67	=67
0r	.	0d	-de,	0r	.	2b-y	.
.	.	.	.	.	.	1cc	.
.	.	.	.	.	.	2bnXi	.
=68	=68	=68	=68	=68	=68	=68	=68
0A	gau-	1c	Ma-	2r	.	0cc	-de,
.	.	.	.	2f	gau-	.	.
.	.	1e	-ter,	2.c	.	.	.
.	.	.	.	4d	.	.	.
=69	=69	=69	=69	=69	=69	=69	=69
0G	-de,	0g	gau-	2e	.	0r	.
.	.	.	.	1f	.	.	.
.	.	.	.	2e	.	.	.
=70	=70	=70	=70	=70	=70	=70	=70
1F	Ma-	0a	.	2f	-de,	0r	.
.	.	.	.	2f	gau-	.	.
1A	-ter,	.	.	2.c	.	.	.
.	.	.	.	4d	.	.	.
=71	=71	=71	=71	=71	=71	=71	=71
0c	gau-	0g	-de,	2e	.	2r	.
.	.	.	.	1f	.	2cc	gau-
.	.	.	.	.	.	2.g	.
.	.	.	.	2e	.	.	.
.	.	.	.	.	.	4a	.
=72	=72	=72	=72	=72	=72	=72	=72
0d	.	1r	.	2f	-de,	2b-y	.
.	.	.	.	1a	gau-	1cc	.
.	.	1f	gau-	.	.	.	.
.	.	.	.	4g	.	2bnXi	.
.	.	.	.	4f	.	.	.
=73	=73	=73	=73	=73	=73	=73	=73
0c	-de,	2.g	.	1e	-de,	2cc	-de,
.	.	.	.	.	.	2cc	gau-
.	.	4f	.	.	.	.	.
.	.	2e	.	2.e	gau-	2.g	.
.	.	2c	.	.	.	.	.
.	.	.	.	4f	.	4a	.
=74	=74	=74	=74	=74	=74	=74	=74
1r	.	0G	-de,	2g	.	2b-y	.
.	.	.	.	2e	.	1cc	.
2r	.	.	.	1d	.	.	.
2B-y	gau-	.	.	.	.	2bnXi	.
=75	=75	=75	=75	=75	=75	=75	=75
4F	.	0A	gau-	1c	-de,	2cc	-de,
4G	.	.	.	.	.	.	.
4A	.	.	.	.	.	2.c	gau-
4B-y	.	.	.	.	.	.	.
1c	.	.	.	[1e	gau-	.	.
.	.	.	.	.	.	4d	.
.	.	.	.	.	.	4e	.
.	.	.	.	.	.	4f	.
=76	=76	=76	=76	=76	=76	=76	=76
1C	-de,	0G	-de,	1e]	.	2.g	.
.	.	.	.	.	.	4a	.
2G	gau-	.	.	[1d	-de,	1b-y	.
2G	-de,	.	.	.	.	.	.
=77	=77	=77	=77	=77	=77	=77	=77
2D	Ma-	1F	Ma-	1d]	.	1a	-de,
2D	-ter,	.	.	.	.	.	.
1F	gau-	1A	-ter,	1c	Ma-	2r	.
.	.	.	.	.	.	2a	Ma-
=78	=78	=78	=78	=78	=78	=78	=78
1C	-de,	0c	gau-	1e	-ter,	2g	-ter,
.	.	.	.	.	.	1cc	gau-
1r	.	.	.	[1g	gau-	.	.
.	.	.	.	.	.	4b-y	.
.	.	.	.	.	.	4a	.
=79	=79	=79	=79	=79	=79	=79	=79
2G	gau-	0d	.	1g]	.	4b-y	.
.	.	.	.	.	.	4cc	.
2G	-de,	.	.	.	.	4dd	.
.	.	.	.	.	.	4ee	.
2D	Ma-	.	.	[1a	.	[1ff	.
2D	-ter,	.	.	.	.	.	.
=80	=80	=80	=80	=80	=80	=80	=80
1F	gau-	0c	-de	1a]	.	1ff]	.
1C	-de,	.	.	1g	-de,	1ee	-de,
=81	=81	=81	=81	=81	=81	=81	=81
0r	.	0G	san-	2r	.	2r	.
.	.	.	.	2.b-y	san-	2.gg	san-
.	.	.	.	4a	.	4ff	.
.	.	.	.	4g	.	4ee	.
.	.	.	.	4f	.	4dd	.
=82	=82	=82	=82	=82	=82	=82	=82
0r	.	0A	.	2e	.	2cc	.
.	.	.	.	4f	.	4dd	.
.	.	.	.	4g	.	4ee	.
.	.	.	.	1a	.	1ff	.
=83	=83	=83	=83	=83	=83	=83	=83
0C	san-	0c	-cta,	2g	-cta,	2ee	.
.	.	.	.	2.e	san-	2.cc	.
.	.	.	.	4d	.	4b-y	.
.	.	.	.	4c	.	4a	.
.	.	.	.	4B-y	.	4g	.
=84	=84	=84	=84	=84	=84	=84	=84
0D	.	0r	.	2A	.	2f	.
.	.	.	.	4B-y	.	4g	.
.	.	.	.	4c	.	4a	.
.	.	.	.	1d	.	1b-y	.
=85	=85	=85	=85	=85	=85	=85	=85
0F	-cta	0c	san-	2.c	.	2a	.
.	.	.	.	.	.	2.cc	.
.	.	.	.	4B-y	.	.	.
.	.	.	.	4A	.	.	.
.	.	.	.	4G	.	4b-y	.
.	.	.	.	4F	.	4a	.
.	.	.	.	8GL	.	4g	.
.	.	.	.	8AJ	.	.	.
=86	=86	=86	=86	=86	=86	=86	=86
0r	.	0d	.	2.B-y	.	2f	.
.	.	.	.	.	.	4g	.
.	.	.	.	4A	.	4a	.
.	.	.	.	1G	-cta	1b-y	.
=87	=87	=87	=87	=87	=87	=87	=87
0F	De-	0f	-cta	2r	.	1a	-cta
.	.	.	.	4F	De-	.	.
.	.	.	.	4G	.	.	.
.	.	.	.	4A	.	2r	.
.	.	.	.	4B-y	.	.	.
.	.	.	.	4c	.	2a	De-
.	.	.	.	4d	.	.	.
=88	=88	=88	=88	=88	=88	=88	=88
0E	.	0r	.	4e	.	2g	.
.	.	.	.	4f	.	.	.
.	.	.	.	2g	.	2.e	.
.	.	.	.	2.G	.	.	.
.	.	.	.	.	.	4f	.
.	.	.	.	.	.	2g	.
.	.	.	.	4A	.	.	.
=89	=89	=89	=89	=89	=89	=89	=89
0D	-i	0f	De-	4B-y	.	2f	.
.	.	.	.	4A	.	.	.
.	.	.	.	1c	.	1a	.
.	.	.	.	2BnXi	.	4g	.
.	.	.	.	.	.	4f	.
=90	=90	=90	=90	=90	=90	=90	=90
0C	.	0e	.	1c	-i	2a	.
.	.	.	.	.	.	2.g	.
.	.	.	.	2r	.	.	.
.	.	.	.	.	.	4f	.
.	.	.	.	2c	Ge-	4g	.
.	.	.	.	.	.	4a	.
=91	=91	=91	=91	=91	=91	=91	=91
0G	Ge-	0d	-i	2B-y	.	2b-y	.
.	.	.	.	2A	.	1cc	.
.	.	.	.	2G	.	.	.
.	.	.	.	2g	.	2bnXi	.
=92	=92	=92	=92	=92	=92	=92	=92
0A	.	0c	.	2f	.	0cc	-i
.	.	.	.	1e	.	.	.
.	.	.	.	4d	.	.	.
.	.	.	.	4c	.	.	.
=93	=93	=93	=93	=93	=93	=93	=93
1G	.	0d	Ge-	2B-y	.	0r	.
.	.	.	.	1c	.	.	.
1G	-ni-	.	.	.	.	.	.
.	.	.	.	2BnXi	.	.	.
=94	=94	=94	=94	=94	=94	=94	=94
0C	-trix,	0e	.	4c	.	0r	.
.	.	.	.	4B-y	.	.	.
.	.	.	.	4A	.	.	.
.	.	.	.	4G	.	.	.
.	.	.	.	4A	.	.	.
.	.	.	.	4G	.	.	.
.	.	.	.	[2g	.	.	.
=95	=95	=95	=95	=95	=95	=95	=95
1r	.	0d	.	2g]	.	0a	Ge-
.	.	.	.	4f#i	.	.	.
.	.	.	.	4e	.	.	.
1D	De-	.	.	2f#i	.	.	.
.	.	.	.	2f#i	-ni-	.	.
=96	=96	=96	=96	=96	=96	=96	=96
0G	-i	0d	-ni-	1g	-trix,	0b-y	.
.	.	.	.	2r	.	.	.
.	.	.	.	2g	Ge-	.	.
=97	=97	=97	=97	=97	=97	=97	=97
0A	Ge-	[0cl	-trix.	2e	.	0a	.
.	.	.	.	2.f	.	.	.
.	.	.	.	4e	.	.	.
.	.	.	.	4f	.	.	.
.	.	.	.	4e	.	.	.
=98	=98	=98	=98	=98	=98	=98	=98
0F	-ni-	0c_	.	1f	.	0a	-ni-
.	.	.	.	1f	-ni-	.	.
=99	=99	=99	=99	=99	=99	=99	=99
00C	-trix.	00c]	.	00e	-trix.	00g	-trix.
=100||	=100||	=100||	=100||	=100||	=100||	=100||	=100||
*M2/1	*	*M2/1	*	*M2/1	*	*M2/1	*
*met(C|)	*	*met(C|)	*	*met(C|)	*	*met(C|)	*
!!section: Secunda pars: Virgo, tu sola
!!!OMD: Secunda pars: Virgo, tu sola
0r	.	0r	.	1f	Vir-	0r	.
.	.	.	.	1e	-go,	.	.
=101	=101	=101	=101	=101	=101	=101	=101
0r	.	1f	Vir-	1d	tu	0r	.
.	.	1e	-go,	1c	so-	.	.
=102	=102	=102	=102	=102	=102	=102	=102
0r	.	1d	tu	1B-y	-la,	1ff	Vir-
.	.	1c	so-	1r	.	1ee	-go,
=103	=103	=103	=103	=103	=103	=103	=103
0r	.	1B-y	-la	2r	.	1dd	tu
.	.	.	.	2b-y	Vir-	.	.
.	.	1c	Ma-	2a	-go,	1cc	so-
.	.	.	.	[2g	tu	.	.
=104	=104	=104	=104	=104	=104	=104	=104
0r	.	1d	-ter	2g]	.	1b-y	-la
.	.	.	.	1f	so-	.	.
.	.	1c	in-	.	.	1cc	Ma-
.	.	.	.	2e	-la	.	.
=105	=105	=105	=105	=105	=105	=105	=105
0r	.	1B-y	-nu-	2f	Ma-	1dd	-ter
.	.	.	.	2d	-ter	.	.
.	.	2A	-pta,	2e	in-	1cc	in-
.	.	2c	ma-	[2a	-nu-	.	.
=106	=106	=106	=106	=106	=106	=106	=106
1r	.	2d	.	2a]	.	1b-y	-nu-
.	.	2e	.	2g	.	.	.
1F	Vir-	2A	.	2a	.	1a	-pta,
.	.	2d	.	2f	.	.	.
=107	=107	=107	=107	=107	=107	=107	=107
1E	-go,	2G	.	2g	.	2r	.
.	.	1c	.	2e	.	2ee	Ma-
1D	tu	.	.	1f	.	2a	-ter
.	.	2B-y	.	.	.	2dd	in-
=108	=108	=108	=108	=108	=108	=108	=108
1C	so-	2c	-ter	4e	.	2g	-nu-
.	.	.	.	4f	.	.	.
.	.	2e	in-	4g	.	2cc	.
.	.	.	.	4a	.	.	.
1BB-y	-la	1f	-nu-	2b-y	.	1dd	.
.	.	.	.	2B-y	-pta,	.	.
=109	=109	=109	=109	=109	=109	=109	=109
1C	Ma-	2e	.	2.G	.	2cc	.
.	.	1c	.	.	.	2ee	.
.	.	.	.	4A	.	.	.
1D	-ter	.	.	1F	.	1ff	.
.	.	2B-y	.	.	.	.	.
=110	=110	=110	=110	=110	=110	=110	=110
1C	in-	1c	-pta,	2G	.	1ee	-pta,
.	.	.	.	2c	.	.	.
1BB-y	-nu-	2r	.	1d	.	1r	.
.	.	2F	te	.	.	.	.
=111	=111	=111	=111	=111	=111	=111	=111
0AA	-pta,	1A	lau-	2r	.	2r	.
.	.	.	.	2c	te	2cc	te
.	.	1A	-dant	1e	lau-	2cc	lau-
.	.	.	.	.	.	2c	-dant
=112	=112	=112	=112	=112	=112	=112	=112
0r	.	1G	fa-	1e	-dant	1g	fa-
.	.	1F	-ctu-	1d	fa-	[1a	-ctu-
=113	=113	=113	=113	=113	=113	=113	=113
2r	.	1F	-rae,	1c	-ctu-	1a]	.
2F	te	.	.	.	.	.	.
1A	lau-	2r	.	1c	-rae,	1a	-rae,
.	.	2c	te	.	.	.	.
=114	=114	=114	=114	=114	=114	=114	=114
1A	-dant	1e	lau-	0r	.	0r	.
1G	fa-	1e	-dant	.	.	.	.
=115	=115	=115	=115	=115	=115	=115	=115
1F	-ctu-	1d	fa-	2r	.	1r	.
.	.	.	.	2f	te	.	.
1F	-rae	1c	-ctu-	1a	lau-	2r	.
.	.	.	.	.	.	2cc	te
=116	=116	=116	=116	=116	=116	=116	=116
0r	.	0c	-rae	1a	-dant	1ee	lau-
.	.	.	.	1g	fa-	1ee	-dant
=117	=117	=117	=117	=117	=117	=117	=117
0r	.	0r	.	1f	-ctu-	1dd	fa-
.	.	.	.	1f	-rae	1cc	-ctu-
=118	=118	=118	=118	=118	=118	=118	=118
1c	Ge-	1r	.	0r	.	1cc	-rae
1d	-ni-	1f	Ge-	.	.	1r	.
=119	=119	=119	=119	=119	=119	=119	=119
1c	-trix	1g	-ni-	1g	Ge-	1r	.
1A	lu-	1f	-trix	1a	-ni-	1cc	Ge-
=120	=120	=120	=120	=120	=120	=120	=120
1B-y	.	1d	lu-	1g	-trix	1dd	-ni-
1c	-cis,	2e	.	1e	lu-	1cc	-trix
.	.	2c	-cis,	.	.	.	.
=121	=121	=121	=121	=121	=121	=121	=121
2F	lu-	2r	.	1f	.	1a	lu-
2A	.	2c	Ge-	.	.	.	.
1G	.	1d	-ni-	1g	-cis,	1b-y	.
=122	=122	=122	=122	=122	=122	=122	=122
1C	-cis,	1c	-trix	2r	.	0cc	-cis,
.	.	.	.	2g	Ge-	.	.
1r	.	1A	lu-	1a	-ni-	.	.
=123	=123	=123	=123	=123	=123	=123	=123
1G	Ge-	1B-y	.	1g	-trix	2r	.
.	.	.	.	.	.	2dd	Ge-
1A	-ni-	1c	-cis,	2e	lu-	2cc	-ni-
.	.	.	.	2f	.	2a	-trix
=124	=124	=124	=124	=124	=124	=124	=124
1G	-trix	2r	.	1g	-cis,	4b-y	lu-
.	.	.	.	.	.	4g	.
.	.	2d	Ge-	.	.	2.gg	.
1E	lu-	2e	-ni-	1g	Ge-	.	.
.	.	.	.	.	.	4ff	.
.	.	2g	-trix	.	.	2ee	.
=125	=125	=125	=125	=125	=125	=125	=125
1F	.	2.f	lu-	1a	-ni-	2dd	.
.	.	.	.	.	.	1cc	.
.	.	4e	.	.	.	.	.
1G	-cis,	1d	.	1g	-trix	.	.
.	.	.	.	.	.	2bnXi	.
=126	=126	=126	=126	=126	=126	=126	=126
1C	Ge-	1c	-cis,	1e	lu-	2.cc	.
.	.	.	.	.	.	4b-y	.
1D	-ni-	1r	.	1f	.	2a	.
.	.	.	.	.	.	4g	.
.	.	.	.	.	.	4f	.
=127	=127	=127	=127	=127	=127	=127	=127
1C	-trix	2r	.	1g	-cis,	1.e	.
.	.	2G	Ge-	.	.	.	.
1AA	lu-	2A	-ni-	1c	Ge-	.	.
.	.	2c	-trix	.	.	2a	.
=128	=128	=128	=128	=128	=128	=128	=128
1BB-y	.	2.B-y	lu-	1d	-ni-	2g	.
.	.	.	.	.	.	1f	.
.	.	4A	.	.	.	.	.
1C	-cis,	1G	.	1c	-trix	.	.
.	.	.	.	.	.	2e	.
=129	=129	=129	=129	=129	=129	=129	=129
2.F	lu-	1F	-cis:	1A	lu-	1f	-cis:
4E	.	.	.	.	.	.	.
1D	.	1r	.	1B-y	.	1r	.
=130	=130	=130	=130	=130	=130	=130	=130
*M3/1	*	*M3/1	*	*M3/1	*	*M3/1	*
*met(3)	*	*met(3)	*	*met(3)	*	*met(3)	*
0C	-cis:	0e	sis	1.c	-cis:	0g	sis
.	.	.	.	2B-y	.	.	.
1r	.	1f	pro	1A	.	1a	pro
=131	=131	=131	=131	=131	=131	=131	=131
0.r	.	0g	no-	2.G	sis	2.b-y	no-
.	.	.	.	4A	.	4cc	.
.	.	.	.	2B-y	.	1dd	.
.	.	.	.	2G	pro	.	.
.	.	1e	-bis,	2c	no-	2g	.
.	.	.	.	2A	.	2cc	.
=132	=132	=132	=132	=132	=132	=132	=132
0.r	.	1.f	quae-	1d	.	2a	-bis,
.	.	.	.	.	.	1dd	quae-
.	.	.	.	2B-y	.	.	.
.	.	2e	.	2c	.	1cc	.
.	.	1d	-su-	1G	-bis,	.	.
.	.	.	.	.	.	2bnXi	-su-
=133	=133	=133	=133	=133	=133	=133	=133
0A	sis	1c	.	1e	sis	0cc	-mus,
.	.	1c	-mus,	1f	pro	.	.
1B-y	pro	1r	.	[1g	no-	1r	.
=134	=134	=134	=134	=134	=134	=134	=134
0c	no-	0e	sis	1g]	.	0cc	sis
.	.	.	.	1e	-bis,	.	.
1A	-bis,	1f	pro	1a	quae-	1cc	pro
=135	=135	=135	=135	=135	=135	=135	=135
1.B-y	quae-	0g	no-	0d	-su-	0b-y	no-
2A	.	.	.	.	.	.	.
1G	.	1e	-bis,	1g	.	1b-y	-bis,
=136	=136	=136	=136	=136	=136	=136	=136
1F	.	1.f	quae-	1c	-mus,	1a	quae-
2D	.	.	.	2r	.	2b-y	.
2E	.	2e	.	2G	sis	1cc	.
2F	.	1d	-su-	2A	pro	.	.
2G	.	.	.	2B-y	no-	2b-y	.
=137	=137	=137	=137	=137	=137	=137	=137
*M2/1	*	*M2/1	*	*M2/1	*	*M2/1	*
*met(C|)	*	*met(C|)	*	*met(C|)	*	*met(C|)	*
1C	-su-	1c	.	2G	-bis,	2.cc	.
.	.	.	.	2G	quae-	.	.
.	.	.	.	.	.	4b-y	.
1F	.	1c	-mus,	4A	.	1a	-su-
.	.	.	.	4G	.	.	.
.	.	.	.	4A	.	.	.
.	.	.	.	4B-y	.	.	.
=138	=138	=138	=138	=138	=138	=138	=138
1C	-mus,	2r	.	2.c	.	2g	-mus,
.	.	2e	sis	.	.	2g	sis
.	.	.	.	4B-y	.	.	.
1r	.	2f	pro	2A	-su-	2a	pro
.	.	2g	no-	2G	-mus,	2b-y	no-
=139	=139	=139	=139	=139	=139	=139	=139
1r	.	2e	-bis,	1r	.	2g	-bis,
.	.	1f	quae-	.	.	4a	quae-
.	.	.	.	.	.	4g	.
2r	.	.	.	2r	.	4a	.
.	.	.	.	.	.	4b-y	.
2E	sis	2e	.	2G	sis	[2cc	.
=140	=140	=140	=140	=140	=140	=140	=140
2F	pro	1d	-su-	2A	pro	2cc]	.
2G	no-	.	.	2B-y	no-	2b-y	.
2E	-bis,	1c	.	2G	-bis,	2.cc	.
[2F	quae-	.	.	4A	quae-	.	.
.	.	.	.	4G	.	4b-y	.
=141	=141	=141	=141	=141	=141	=141	=141
2F]	.	1c	-mus,	4A	.	2a	-su-
.	.	.	.	4B-y	.	.	.
2E	.	.	.	1c	.	2g	-mus,
1D	-su-	1r	.	.	.	1r	.
.	.	.	.	2BnXi	-su-	.	.
=142	=142	=142	=142	=142	=142	=142	=142
1C	-mus,	2r	.	1c	-mus,	2r	.
.	.	2g	per-	.	.	2gg	per-
1r	.	1a	.	1r	.	2ee	-pe-
.	.	.	.	.	.	2cc	.
=143	=143	=143	=143	=143	=143	=143	=143
2r	.	1g	-pe-	2r	.	2dd	.
2c	per-	.	.	2cc	per-	1ee	.
1d	.	1f	-tu-	2a	-pe-	.	.
.	.	.	.	2f	.	2dd	.
=144	=144	=144	=144	=144	=144	=144	=144
1c	-pe-	1e	-a,	2g	.	2ee	.
.	.	.	.	1a	.	2cc	-tu-
1B-y	-tu-	1r	.	.	.	1dd	-a,
.	.	.	.	2g	-tu-	.	.
=145	=145	=145	=145	=145	=145	=145	=145
1A	-a,	2r	.	1a	-a,	2r	.
.	.	2c	per-	.	.	2cc	per-
1r	.	1d	.	1r	.	2a	-pe-
.	.	.	.	.	.	2f	.
=146	=146	=146	=146	=146	=146	=146	=146
2r	.	1c	-pe-	2r	.	2g	.
2F	per-	.	.	2f	per-	1a	.
1G	.	1B-y	-tu-	2d	-pe-	.	.
.	.	.	.	2B-y	.	2g	.
=147	=147	=147	=147	=147	=147	=147	=147
1F	-pe-	1A	-a	2c	.	2a	.
.	.	.	.	1d	.	2f	.
1E	-tu-	1r	.	.	.	1g	-tu-
.	.	.	.	2c#i	-tu-	.	.
=148	=148	=148	=148	=148	=148	=148	=148
0D	-a	1B-y	in-	1d	-a	1f	-a
.	.	1A	.	1f	in-	1r	.
=149	=149	=149	=149	=149	=149	=149	=149
1r	.	1G	-ter-	1e	.	1r	.
1G	in-	1G	-ven-	1d	-ter-	1b-y	in-
=150	=150	=150	=150	=150	=150	=150	=150
1D	-ter-	2.F	-trix	1d	-ven-	0a	.
.	.	4G	.	.	.	.	.
1F	-ven-	4A	.	[1c	-trix	.	.
.	.	4B-y	.	.	.	.	.
.	.	4c	.	.	.	.	.
.	.	4d	.	.	.	.	.
=151	=151	=151	=151	=151	=151	=151	=151
0C	-trix	2e	.	1c]	.	1g	-ter-
.	.	1f	.	.	.	.	.
.	.	.	.	1g	ad	1g	-ven-
.	.	2e	.	.	.	.	.
=152	=152	=152	=152	=152	=152	=152	=152
0r	.	0f	.	0a	.	1f	-trix
.	.	.	.	.	.	1cc	ad
=153	=153	=153	=153	=153	=153	=153	=153
0G	ad	0r	.	0g	Do-	0dd	.
=154	=154	=154	=154	=154	=154	=154	=154
0A	.	0c	ad	1e	-mi-	1cc	Do-
.	.	.	.	[1c	.	2a	-mi-
.	.	.	.	.	.	2f	.
=155	=155	=155	=155	=155	=155	=155	=155
0G	Do-	0d	.	2c]	.	1g	-num,
.	.	.	.	4BnXi	.	.	.
.	.	.	.	4A	.	.	.
.	.	.	.	1Bni	.	2r	.
.	.	.	.	.	.	2g	ad
=156	=156	=156	=156	=156	=156	=156	=156
1E	-mi-	0c	Do-	1c	-num,	1g	Do-
1C	-num	.	.	1g	ad	1e	-mi-
=157	=157	=157	=157	=157	=157	=157	=157
0F	Je-	1A	-mi-	0a	.	2c	-num
.	.	.	.	.	.	1f	Je-
.	.	1F	.	.	.	.	.
.	.	.	.	.	.	4e	.
.	.	.	.	.	.	4d	.
=158	=158	=158	=158	=158	=158	=158	=158
0C	-sum	0G	-num	1g	Do-	2.e	.
.	.	.	.	.	.	4f	.
.	.	.	.	1e	-mi-	2g	.
.	.	.	.	.	.	2e	-sum
=159	=159	=159	=159	=159	=159	=159	=159
0F	Chri-	0A	Je-	1c	-num	2.f	Chri-
.	.	.	.	.	.	4g	.
.	.	.	.	2r	.	4a	.
.	.	.	.	.	.	4b-y	.
.	.	.	.	2f	Je-	4cc	.
.	.	.	.	.	.	4dd	.
=160	=160	=160	=160	=160	=160	=160	=160
1C	-stum,	0G	-sum	2g	.	2ee	.
.	.	.	.	2e	.	1cc	.
1r	.	.	.	1d	-sum	.	.
.	.	.	.	.	.	2bnXi	.
=161	=161	=161	=161	=161	=161	=161	=161
1r	.	0A	.	2.c	Chri-	1cc	-stum,
.	.	.	.	4d	.	.	.
2r	.	.	.	2e	.	1cc	ad
2F	Je-	.	.	2c	.	.	.
=162	=162	=162	=162	=162	=162	=162	=162
2D	-sum	0F	Chri-	1f	-stum,	1dd	.
2BB-y	Chri-	.	.	.	.	.	.
1F	-stum,	.	.	2r	.	2cc	Do-
.	.	.	.	2c	Je-	2a	-mi-
=163	=163	=163	=163	=163	=163	=163	=163
2r	.	[0Fl	-stum.	2A	-sum	2.f	-num
2c	Je-	.	.	2F	Chri-	.	.
.	.	.	.	.	.	4g	.
2A	-sum	.	.	1c	-stum,	[1a	.
2F	Chri-	.	.	.	.	.	.
=164	=164	=164	=164	=164	=164	=164	=164
1c	-stum,	0F_	.	2r	.	1a]	.
.	.	.	.	2c	Je-	.	.
2r	.	.	.	2A	-sum	2r	.
2A	Je-	.	.	2F	Chri-	2cc	Je-
=165	=165	=165	=165	=165	=165	=165	=165
2F	-sum	0F_	.	2c	-stum,	2a	-sum
2D	Chri-	.	.	2d	.	2f	Chri-
1A	-stum,	.	.	2c	.	1cc	-stum,
.	.	.	.	[2f	.	.	.
=166	=166	=166	=166	=166	=166	=166	=166
2r	.	0F_	.	4f]	.	2r	.
.	.	.	.	4e	.	.	.
2F	Je-	.	.	2c	.	2a	Je-
2D	-sum	.	.	1d	.	2f	-sum
2BB-y	Chri-	.	.	.	.	2d	Chri-
=167	=167	=167	=167	=167	=167	=167	=167
[0Fl	-stum.	0F_	.	2r	.	[0al	-stum.
.	.	.	.	2c	Je-	.	.
.	.	.	.	2A	-sum	.	.
.	.	.	.	2F	Chri-	.	.
=168	=168	=168	=168	=168	=168	=168	=168
00F]	.	00F]	.	00cl	-stum.	00a]	.
==	==	==	==	==	==	==	==
*-	*-	*-	*-	*-	*-	*-	*-
!!!system-decoration: [*]
!!!RDF**kern: i = editorial accidental
!!!RDF**kern: l = terminal long
!!!PTL: <i> New Senfl Edition: Motets for Four Voices (A-I) </i>
!!!PPR: Hollitzer Verlag
!!!PC#: Denkmäler der Tonkunst in Österreich 163.1
!!!PDT: 2021
!!!PED: Scott Lee Edwards, Stefan Gasch, and Sonja Tröster
!!!YEC: Copyright 2021 Denkmäler der Tonkunst in Österreich
!!!YEM: CC-BY-NC 4.0 (https://creativecommons.org/licenses/by-nc/4.0/legalcode)
!!!EED: Benjamin Ory
!!!EEV: 2024/3/14
!!!verovio: header encoded
!!!header-left: @{PTL}\n@{PED}, eds.\n@{PC#} (@{PDT})&nbsp;\n
!!!header-right:
!!!header-center:
